X:203
T: MEISTER MUELLER THUT MAL SEHEN
N: E0108A
O: Europa, Mitteleuropa, Deutschland, Schlesien
R: erzaehlendes Volks - Lied, Sage, Liebe, Leid, Tod
M: 4/4
L: 1/8
K: F
CC | F2F2FAcA | A2G2z2
GA | B2B2BdcB | B2A2z2
AB | c2ABcfed | d2c2z
ccd | c3dcBEG | G2F2z2
AB | c2ABcfed | d2c2z
ccd | c3dcBEG | G2F2z2

@@@ Tune index: 3853
